!!! OTL: Literature117
!!! Chapter: 5
!!! Section: IV
!!! Page: 372
!!! Mode: 
!!! Encoder: DJB
**kern
*staff1
*I"Piano
=1-
*clefC4
*k[]
*C:
*M3/4
4r
4r
4G/
=2
4E/
4G/
[4c\
=3
4c\]
8B\
8r
4d\
=4
4G/
4d\
[4f\
=5
4f\]
8e\
8r
4G/
=6
4c\
4e\
[4g\
=7
4g\]
8f\L
8e\J
8d\L
8c\J
=8
4c\
8.r
16d\
8B\
8r
=9
8c\
8r
2r
==
*-
